assets/svg/computer.svg

<?xml version="1.0" encoding="UTF-8"?>
<svg width="430px" height="323px" viewBox="0 0 430 323" version="1.1" xmlns="http://www.w3.org/2000/svg" xmlns:xlink="http://www.w3.org/1999/xlink">
    <!-- Generator: Sketch 43.2 (39069) - http://www.bohemiancoding.com/sketch -->
    <title>computer</title>
    <desc>Created with Sketch.</desc>
    <defs>
        <polygon id="path-1" points="429.5 212.9998 429.5 0 0.0002 0 0.0002 212.9998 429.5 212.9998"></polygon>
        <polygon id="path-3" points="429.5 59 429.5 1.42108547e-14 0.0002 0 0.0002 59 429.5 59"></polygon>
    </defs>
    <g id="Page-1" stroke="none" stroke-width="1" fill="none" fill-rule="evenodd">
        <g id="computer">
            <polygon id="Fill-1" fill="#6DAADD" points="239.8117 272 214.7497 272 189.6877 272 174.1237 311 214.7497 311 255.3747 311"></polygon>
            <g id="Group-22">
                <g id="Group-4">
                    <mask id="mask-2" fill="white">
                        <use xlink:href="#path-1"></use>
                    </mask>
                    <g id="Clip-3"></g>
                    <path d="M429.5002,5.5938 C429.5002,2.5178 426.9822,-0.0002 423.9052,-0.0002 L5.5942,-0.0002 C2.5182,-0.0002 0.0002,2.5178 0.0002,5.5938 L0.0002,212.9998 L429.5002,212.9998 L429.5002,5.5938 Z" id="Fill-2" fill="#0574BA" mask="url(#mask-2)"></path>
                </g>
                <g id="Group-7" transform="translate(0.000000, 213.000000)">
                    <mask id="mask-4" fill="white">
                        <use xlink:href="#path-3"></use>
                    </mask>
                    <g id="Clip-6"></g>
                    <path d="M0.0002,0 L0.0002,54.732 C0.0002,57.08 1.9202,59 4.2682,59 L425.2322,59 C427.5792,59 429.5002,57.08 429.5002,54.732 L429.5002,0 L0.0002,0 Z" id="Fill-5" fill="#82B5E2" mask="url(#mask-4)"></path>
                </g>
                <path d="M266.7502,323 L162.7502,323 C161.6492,323 160.7502,322.1 160.7502,321 L160.7502,313 C160.7502,311.9 161.6492,311 162.7502,311 L266.7502,311 C267.8502,311 268.7502,311.9 268.7502,313 L268.7502,321 C268.7502,322.1 267.8502,323 266.7502,323" id="Fill-8" fill="#82B5E2"></path>
                <path d="M207.0363,99.7246 C208.6643,96.8186 209.5973,93.4706 209.5973,89.9026 C209.5973,78.7896 200.5893,69.7826 189.4763,69.7826 C178.3653,69.7826 169.3563,78.7896 169.3563,89.9026 C169.3563,93.4706 170.2893,96.8186 171.9183,99.7246 C167.2863,104.2736 164.4093,110.6036 164.4093,117.6096 L164.4093,150.5166 C164.4093,152.7456 175.6323,154.5506 189.4763,154.5506 C203.3213,154.5506 214.5453,152.7456 214.5453,150.5166 L214.5453,117.6096 C214.5453,110.6036 211.6683,104.2736 207.0363,99.7246" id="Fill-10" fill="#82B5E2"></path>
                <path d="M255.0217,95.4824 C257.2067,91.5864 258.4567,87.0964 258.4567,82.3124 C258.4567,67.4124 246.3767,55.3334 231.4777,55.3334 C216.5777,55.3334 204.4987,67.4124 204.4987,82.3124 C204.4987,87.0964 205.7487,91.5864 207.9327,95.4824 C201.7207,101.5824 197.8637,110.0714 197.8637,119.4644 L197.8637,163.5904 C197.8637,166.5784 212.9137,169.0004 231.4777,169.0004 C250.0417,169.0004 265.0907,166.5784 265.0907,163.5904 L265.0907,119.4644 C265.0907,110.0714 261.2337,101.5824 255.0217,95.4824" id="Fill-12" fill="#3EB6A8"></path>
                <path d="M283.1399,156.3115 C283.1399,170.8075 271.3879,182.5595 256.8919,182.5595 C242.3959,182.5595 230.6439,170.8075 230.6439,156.3115 C230.6439,141.8145 242.3959,130.0635 256.8919,130.0635 C271.3879,130.0635 283.1399,141.8145 283.1399,156.3115" id="Fill-14" fill="#EDC913"></path>
                <path d="M269.2209,153.5273 L259.6759,153.5273 L259.6759,143.9823 C259.6759,142.4513 258.4229,141.1983 256.8919,141.1983 C255.3609,141.1983 254.1079,142.4513 254.1079,143.9823 L254.1079,153.5273 L244.5629,153.5273 C243.0329,153.5273 241.7799,154.7803 241.7799,156.3113 C241.7799,157.8423 243.0329,159.0943 244.5629,159.0943 L254.1079,159.0943 L254.1079,168.6393 C254.1079,170.1713 255.3609,171.4233 256.8919,171.4233 C258.4229,171.4233 259.6759,170.1713 259.6759,168.6393 L259.6759,159.0943 L269.2209,159.0943 C270.7509,159.0943 272.0039,157.8423 272.0039,156.3113 C272.0039,154.7803 270.7509,153.5273 269.2209,153.5273" id="Fill-16" fill="#FEFEFE"></path>
                <path d="M300.342,193.8203 L300.342,193.8203 C297.376,193.8203 294.973,196.2243 294.973,199.1893 C294.973,196.2243 292.569,193.8203 289.604,193.8203 C286.639,193.8203 284.235,196.2243 284.235,199.1893 C284.235,196.2243 281.831,193.8203 278.865,193.8203 C275.901,193.8203 273.496,196.2243 273.496,199.1893 L273.496,171.1643 C273.496,168.2533 271.233,165.7733 268.323,165.6703 C265.269,165.5613 262.759,168.0063 262.759,171.0353 L262.759,206.8973 C262.759,209.6793 259.396,211.0733 257.428,209.1053 L253.977,205.6543 C251.918,203.5953 248.564,203.4433 246.434,205.4273 C244.197,207.5103 244.151,211.0133 246.293,213.1563 L262.759,229.6223 L262.759,232.7923 L273.496,232.7923 L284.235,232.7923 L294.973,232.7923 L305.71,232.7923 L305.71,199.1893 C305.71,196.2243 303.307,193.8203 300.342,193.8203" id="Fill-18" fill="#FEFEFE"></path>
                <path d="M298.4807,242.5 L269.9887,242.5 C265.9957,242.5 262.7587,239.264 262.7587,235.271 L262.7587,232.792 L305.7097,232.792 L305.7097,235.271 C305.7097,239.264 302.4737,242.5 298.4807,242.5" id="Fill-20" fill="#EDC913"></path>
            </g>
        </g>
    </g>
</svg>

<svg id="b7d06be9-1d77-4453-8a19-a641e1c1cbf4" data-name="Layer 1" xmlns="http://www.w3.org/2000/svg" xmlns:xlink="http://www.w3.org/1999/xlink" viewBox="0 0 429.5 323">
  <defs>
    <mask id="cd83641f-1a45-4166-95d5-04cd2a5d7453" x="0" y="0" width="429.5" height="213" maskUnits="userSpaceOnUse">
      <g transform="translate(0 0)">
        <g id="ce947a68-4211-4858-bd95-31c9f273fee4" data-name="mask-2">
          <polygon id="78e38a0a-bae2-4ec2-8cfa-4ffed038ac8d" data-name="path-1" points="429.5 213 429.5 0 0 0 0 213 429.5 213" style="fill: #fff"/>
        </g>
      </g>
    </mask>
    <mask id="6913969b-e44c-44a3-807c-20dc6d8b3829" x="0" y="213" width="429.5" height="59" maskUnits="userSpaceOnUse">
      <g transform="translate(0 0)">
        <g id="ae0e8f63-62b7-47d5-9820-8f6d9e684f9a" data-name="mask-4">
          <polygon id="7efd910b-7dbb-4d63-b215-e30373ac6497" data-name="path-3" points="429.5 272 429.5 213 0 213 0 272 429.5 272" style="fill: #fff"/>
        </g>
      </g>
    </mask>
  </defs>
  <title>computer</title>
  <g id="d20457d9-726d-4225-b62a-eebb1ff5cfe1" data-name="Page-1">
    <g id="85cf74e8-b3d8-4514-8c10-1df31805f42c" data-name="computer">
      <polygon id="f42f1017-51fa-4ae8-9e4e-5caee6a38391" data-name="Fill-1" points="239.81 272 214.75 272 189.69 272 174.12 311 214.75 311 255.37 311 239.81 272" style="fill: #6daadd"/>
      <g id="520edc3b-426e-4144-ae25-c1d09a3f651e" data-name="Group-22">
        <g id="a51fe7fc-550f-44d5-83eb-f98b778d52f9" data-name="Group-4">
          <g style="mask: url(#cd83641f-1a45-4166-95d5-04cd2a5d7453)">
            <path id="e79d5936-b798-4ca1-98f4-f7f5016e5928" data-name="Fill-2" d="M429.5,5.59A5.61,5.61,0,0,0,423.91,0H5.59A5.61,5.61,0,0,0,0,5.59V213H429.5Z" transform="translate(0 0)" style="fill: #0574ba"/>
          </g>
        </g>
        <g id="f7e52ca9-cb60-4e50-849d-88748787d921" data-name="Group-7">
          <g style="mask: url(#6913969b-e44c-44a3-807c-20dc6d8b3829)">
            <path id="9cf9d6e0-806b-407d-ac4a-379c06e3170f" data-name="Fill-5" d="M0,213v54.73A4.28,4.28,0,0,0,4.27,272h421a4.28,4.28,0,0,0,4.27-4.27V213Z" transform="translate(0 0)" style="fill: #82b5e2"/>
          </g>
        </g>
        <path id="b776b9a3-af13-4d19-a812-4a267d4bf09f" data-name="Fill-8" d="M266.75,323h-104a2,2,0,0,1-2-2v-8a2,2,0,0,1,2-2h104a2,2,0,0,1,2,2v8a2,2,0,0,1-2,2" transform="translate(0 0)" style="fill: #82b5e2"/>
        <path id="42cc7237-07db-49fc-a595-123cfb67d137" data-name="Fill-10" d="M207,99.72a20.12,20.12,0,1,0-35.12,0,25,25,0,0,0-7.51,17.88v32.91c0,2.23,11.22,4,25.07,4s25.07-1.8,25.07-4V117.61A25,25,0,0,0,207,99.72" transform="translate(0 0)" style="fill: #82b5e2"/>
        <path id="a05fcad1-35e2-4744-9c86-ddf0b493b68f" data-name="Fill-12" d="M255,95.48a27,27,0,1,0-47.09,0,33.51,33.51,0,0,0-10.07,24v44.13c0,3,15.05,5.41,33.61,5.41s33.61-2.42,33.61-5.41V119.46a33.51,33.51,0,0,0-10.07-24" transform="translate(0 0)" style="fill: #3eb6a8"/>
        <path id="6ced0847-15f9-4745-9ca0-7e206d30aeed" data-name="Fill-14" d="M283.14,156.31a26.25,26.25,0,1,1-26.25-26.25,26.25,26.25,0,0,1,26.25,26.25" transform="translate(0 0)" style="fill: #edc913"/>
        <path id="c5287345-3be1-4a68-9da9-09b7e6485d01" data-name="Fill-16" d="M269.22,153.53h-9.54V144a2.78,2.78,0,0,0-5.57,0v9.54h-9.54a2.78,2.78,0,0,0,0,5.57h9.54v9.54a2.78,2.78,0,0,0,5.57,0v-9.54h9.54a2.78,2.78,0,0,0,0-5.57" transform="translate(0 0)" style="fill: #fefefe"/>
        <path id="8a07d171-1e7b-4e24-97a1-15547fcb9d5c" data-name="Fill-18" d="M300.34,193.82h0a5.37,5.37,0,0,0-5.37,5.37,5.37,5.37,0,1,0-10.74,0,5.37,5.37,0,0,0-10.74,0v-28a5.45,5.45,0,0,0-5.17-5.49,5.37,5.37,0,0,0-5.56,5.36V206.9a3.12,3.12,0,0,1-5.33,2.21L254,205.65a5.45,5.45,0,0,0-7.54-.23,5.37,5.37,0,0,0-.14,7.73l16.47,16.47v3.17h43v-33.6a5.37,5.37,0,0,0-5.37-5.37" transform="translate(0 0)" style="fill: #fefefe"/>
        <path id="04304b44-a3ba-4596-a898-46bafe813791" data-name="Fill-20" d="M298.48,242.5H270a7.23,7.23,0,0,1-7.23-7.23v-2.48h43v2.48a7.23,7.23,0,0,1-7.23,7.23" transform="translate(0 0)" style="fill: #edc913"/>
      </g>
    </g>
  </g>
</svg>
